icons/slack.svg

<?xml version="1.0" encoding="UTF-8"?>
<svg width="512px" height="130px" viewBox="0 0 512 130" version="1.1" xmlns="http://www.w3.org/2000/svg" xmlns:xlink="http://www.w3.org/1999/xlink" preserveAspectRatio="xMidYMid">
    <g>
				<path d="M163.592757,101.884909 L169.979879,87.0503018 C176.882093,92.2012072 186.050704,94.8796781 195.116298,94.8796781 C201.812475,94.8796781 206.036217,92.3042254 206.036217,88.3895372 C205.933199,77.4696177 165.962173,86.0201207 165.653119,58.6173038 C165.550101,44.7098592 177.912274,33.9959759 195.425352,33.9959759 C205.830181,33.9959759 216.23501,36.5714286 223.652314,42.4434608 L217.677264,57.5871227 C210.878068,53.2603622 202.430584,50.1698189 194.395171,50.1698189 C188.935211,50.1698189 185.329577,52.7452716 185.329577,56.0418511 C185.432596,66.7557344 225.712676,60.8837022 226.124748,87.0503018 C226.124748,101.266801 214.07163,111.259557 196.764588,111.259557 C184.09336,111.259557 172.452314,108.272032 163.592757,101.884909 Z M408.672837,81.6933602 L426.288934,91.4800805 C419.695775,103.327163 407.127565,111.259557 392.602012,111.259557 C371.277264,111.259557 353.970221,93.9525151 353.970221,72.6277666 C353.970221,51.3030181 371.277264,33.9959759 392.602012,33.9959759 C407.024547,33.9959759 419.695775,42.0313883 426.288934,53.7754527 L408.672837,63.562173 C405.479276,57.9991952 399.504225,54.1875252 392.602012,54.1875252 C382.403219,54.1875252 374.161771,62.4289738 374.161771,72.6277666 C374.161771,82.8265594 382.403219,91.068008 392.602012,91.068008 C399.504225,91.068008 405.479276,87.256338 408.672837,81.6933602 Z M234.984306,1.95734406 L257.030181,1.95734406 L257.030181,109.817304 L234.984306,109.817304 L234.984306,1.95734406 Z M434.942455,1.95734406 L456.98833,1.95734406 L456.98833,65.3134809 L481.918712,35.5412475 L508.909457,35.5412475 L478.107042,71.3915493 L511.381891,109.817304 L483.15493,109.817304 L456.98833,77.4696177 L456.98833,109.817304 L434.942455,109.817304 L434.942455,1.95734406 Z M322.549698,81.8993964 L322.549698,63.6651911 C319.356137,58.3082495 312.762978,54.1875252 305.345674,54.1875252 C295.146881,54.1875252 286.905433,62.4289738 286.905433,72.6277666 C286.905433,82.8265594 295.146881,91.068008 305.345674,91.068008 C312.762978,91.068008 319.356137,87.1533199 322.549698,81.8993964 Z M322.549698,35.5412475 L344.595573,35.5412475 L344.595573,109.714286 L322.549698,109.714286 L322.549698,100.957746 C318.944064,107.035815 309.981489,111.259557 300.606841,111.259557 C281.239437,111.259557 265.992757,93.9525151 265.992757,72.5247485 C265.992757,51.0969819 281.239437,33.9959759 300.606841,33.9959759 C309.981489,33.9959759 318.944064,38.2197183 322.549698,44.2977867 L322.549698,35.5412475 Z" fill="#000000"></path>
				<path d="M27.2997988,81.7963783 C27.2997988,89.3167002 21.2217304,95.3947686 13.7014085,95.3947686 C6.18108652,95.3947686 0.103018109,89.3167002 0.103018109,81.7963783 C0.103018109,74.2760563 6.18108652,68.1979879 13.7014085,68.1979879 L27.2997988,68.1979879 L27.2997988,81.7963783 Z M34.098994,81.7963783 C34.098994,74.2760563 40.1770624,68.1979879 47.6973843,68.1979879 C55.2177062,68.1979879 61.2957746,74.2760563 61.2957746,81.7963783 L61.2957746,115.792354 C61.2957746,123.312676 55.2177062,129.390744 47.6973843,129.390744 C40.1770624,129.390744 34.098994,123.312676 34.098994,115.792354 L34.098994,81.7963783 Z" fill="#E01E5A"></path>
				<path d="M47.6973843,27.1967807 C40.1770624,27.1967807 34.098994,21.1187123 34.098994,13.5983903 C34.098994,6.07806841 40.1770624,0 47.6973843,0 C55.2177062,0 61.2957746,6.07806841 61.2957746,13.5983903 L61.2957746,27.1967807 L47.6973843,27.1967807 Z M47.6973843,34.098994 C55.2177062,34.098994 61.2957746,40.1770624 61.2957746,47.6973843 C61.2957746,55.2177062 55.2177062,61.2957746 47.6973843,61.2957746 L13.5983903,61.2957746 C6.07806841,61.2957746 0,55.2177062 0,47.6973843 C0,40.1770624 6.07806841,34.098994 13.5983903,34.098994 L47.6973843,34.098994 Z" fill="#36C5F0"></path>
				<path d="M102.193964,47.6973843 C102.193964,40.1770624 108.272032,34.098994 115.792354,34.098994 C123.312676,34.098994 129.390744,40.1770624 129.390744,47.6973843 C129.390744,55.2177062 123.312676,61.2957746 115.792354,61.2957746 L102.193964,61.2957746 L102.193964,47.6973843 Z M95.3947686,47.6973843 C95.3947686,55.2177062 89.3167002,61.2957746 81.7963783,61.2957746 C74.2760563,61.2957746 68.1979879,55.2177062 68.1979879,47.6973843 L68.1979879,13.5983903 C68.1979879,6.07806841 74.2760563,-7.10542736e-15 81.7963783,-7.10542736e-15 C89.3167002,-7.10542736e-15 95.3947686,6.07806841 95.3947686,13.5983903 L95.3947686,47.6973843 Z" fill="#2EB67D"></path>
				<path d="M81.7963783,102.193964 C89.3167002,102.193964 95.3947686,108.272032 95.3947686,115.792354 C95.3947686,123.312676 89.3167002,129.390744 81.7963783,129.390744 C74.2760563,129.390744 68.1979879,123.312676 68.1979879,115.792354 L68.1979879,102.193964 L81.7963783,102.193964 Z M81.7963783,95.3947686 C74.2760563,95.3947686 68.1979879,89.3167002 68.1979879,81.7963783 C68.1979879,74.2760563 74.2760563,68.1979879 81.7963783,68.1979879 L115.895372,68.1979879 C123.415694,68.1979879 129.493763,74.2760563 129.493763,81.7963783 C129.493763,89.3167002 123.415694,95.3947686 115.895372,95.3947686 L81.7963783,95.3947686 Z" fill="#ECB22E"></path>
		</g>
</svg>

<svg xmlns="http://www.w3.org/2000/svg" viewBox="0 0 511.382 129.391">
  <path d="m163.593 101.885 6.387-14.835c6.902 5.151 16.07 7.83 25.136 7.83 6.696 0 10.92-2.576 10.92-6.49-.103-10.92-40.074-2.37-40.383-29.773-.103-13.907 12.26-24.621 29.772-24.621 10.405 0 20.81 2.575 28.227 8.447l-5.975 15.144c-6.799-4.327-15.246-7.417-23.282-7.417-5.46 0-9.065 2.575-9.065 5.872.103 10.714 40.383 4.842 40.795 31.008 0 14.217-12.053 24.21-29.36 24.21-12.672 0-24.313-2.988-33.172-9.375zm245.08-20.192 17.616 9.787c-6.593 11.847-19.161 19.78-33.687 19.78-21.325 0-38.632-17.307-38.632-38.632s17.307-38.632 38.632-38.632c14.423 0 27.094 8.035 33.687 19.78l-17.616 9.786c-3.194-5.563-9.169-9.374-16.071-9.374-10.199 0-18.44 8.241-18.44 18.44 0 10.199 8.241 18.44 18.44 18.44 6.902 0 12.877-3.812 16.07-9.375zM234.984 1.957h22.046v107.86h-22.046zm199.958 0h22.046v63.356l24.93-29.772h26.991l-30.802 35.85 33.275 38.426h-28.227L456.988 77.47v32.347h-22.046zM322.55 81.9V63.665c-3.194-5.357-9.787-9.477-17.204-9.477-10.2 0-18.44 8.241-18.44 18.44 0 10.199 8.24 18.44 18.44 18.44 7.417 0 14.01-3.915 17.204-9.169zm0-46.358h22.046v74.173H322.55v-8.756c-3.606 6.078-12.569 10.302-21.943 10.302-19.368 0-34.614-17.307-34.614-38.735s15.246-38.529 34.614-38.529c9.374 0 18.337 4.224 21.943 10.302z"/>
  <path fill="#e01e5a" d="M27.3 81.796c0 7.52-6.078 13.599-13.599 13.599A13.585 13.585 0 0 1 .103 81.796c0-7.52 6.078-13.598 13.598-13.598H27.3zm6.799 0c0-7.52 6.078-13.598 13.598-13.598 7.52 0 13.599 6.078 13.599 13.598v33.996c0 7.52-6.078 13.599-13.599 13.599A13.585 13.585 0 0 1 34.1 115.792z"/>
  <path fill="#36c5f0" d="M47.697 27.197A13.585 13.585 0 0 1 34.1 13.598C34.099 6.078 40.177 0 47.697 0c7.52 0 13.599 6.078 13.599 13.598v13.599zm0 6.902c7.52 0 13.599 6.078 13.599 13.598 0 7.52-6.078 13.599-13.599 13.599H13.598A13.585 13.585 0 0 1 0 47.697C0 40.177 6.078 34.1 13.598 34.1z"/>
  <path fill="#2eb67d" d="M102.194 47.697c0-7.52 6.078-13.598 13.598-13.598 7.52 0 13.599 6.078 13.599 13.598 0 7.52-6.078 13.599-13.599 13.599h-13.598zm-6.8 0c0 7.52-6.077 13.599-13.598 13.599a13.585 13.585 0 0 1-13.598-13.599V13.598C68.198 6.078 74.276 0 81.796 0c7.52 0 13.599 6.078 13.599 13.598z"/>
  <path fill="#ecb22e" d="M81.796 102.194c7.52 0 13.599 6.078 13.599 13.598 0 7.52-6.078 13.599-13.599 13.599a13.585 13.585 0 0 1-13.598-13.599v-13.598zm0-6.8a13.585 13.585 0 0 1-13.598-13.598c0-7.52 6.078-13.598 13.598-13.598h34.1c7.52 0 13.598 6.078 13.598 13.598 0 7.52-6.078 13.599-13.599 13.599z"/>
</svg>
